ds42/src/images/icons/cloud-upload.svg

<?xml version="1.0" encoding="UTF-8"?>
<svg width="24px" height="18px" viewBox="0 0 24 18" version="1.1" xmlns="http://www.w3.org/2000/svg" xmlns:xlink="http://www.w3.org/1999/xlink">
    <!-- Generator: Sketch 62 (91390) - https://sketch.com -->
    <title>cloud-upload </title>
    <desc>Created with Sketch.</desc>
    <defs>
        <polygon id="path-1" points="23.2651346 13.9416505 3.01353064e-05 13.9416505 3.01353064e-05 1.493328e-05 23.2651346 1.493328e-05"></polygon>
    </defs>
    <g id="Page-1" stroke="none" stroke-width="1" fill="none" fill-rule="evenodd">
        <g id="Artboard" transform="translate(-876.000000, -117.000000)">
            <g id="cloud-upload-" transform="translate(876.000000, 117.000000)">
                <g id="Cloud-Upload-Icon">
                    <path d="M11.2007786,8.43257912 C10.9931134,8.19762052 10.9931134,7.8130467 11.2007786,7.5780881 C11.4084438,7.34312951 11.7482873,7.34312951 11.9559525,7.5780881 L14.4576751,10.4085424 C14.6653403,10.643501 14.6653403,11.0280748 14.4576751,11.2630334 C14.2499338,11.497992 13.9100903,11.497992 13.7024251,11.2630334 L11.2007786,8.43257912 Z" id="Fill-1" fill="#191919"></path>
                    <path d="M11.9528903,8.43037294 C12.1605555,8.19541435 12.1605555,7.81084053 11.9528903,7.57588193 C11.7452251,7.34092334 11.4053817,7.34092334 11.1977165,7.57588193 L8.26449996,10.4085424 C8.05683476,10.643501 8.05683476,11.0280748 8.26449996,11.2630334 C8.47224125,11.497992 8.81208469,11.497992 9.01974989,11.2630334 L11.9528903,8.43037294 Z" id="Fill-3" fill="#191919"></path>
                    <path d="M12.0645709,8.60674412 C12.0645709,8.31415266 11.8352325,8.07476636 11.5548357,8.07476636 C11.2744389,8.07476636 11.0450297,8.31415266 11.0450297,8.60674412 L11.0450297,17.4680222 C11.0450297,17.7606137 11.2744389,18 11.5548357,18 C11.8352325,18 12.0645709,17.7606137 12.0645709,17.4680222 L12.0645709,8.60674412 Z" id="Fill-5" fill="#2C2C2C"></path>
                    <g id="Group-9">
                        <mask id="mask-2" fill="white">
                            <use xlink:href="#path-1"></use>
                        </mask>
                        <g id="Clip-8"></g>
                        <path d="M18.921085,4.53532674 C18.672318,3.34148567 17.9404821,2.25217756 16.8210308,1.42547118 C15.5771207,0.506029127 13.9601355,1.493328e-05 12.2761746,1.493328e-05 C10.9747814,1.493328e-05 9.70698903,0.301219191 8.62098792,0.869131831 C7.71670271,1.34057548 6.96573088,1.97792787 6.43474678,2.72727986 C6.20511574,2.69263465 5.96591675,2.67322139 5.72671775,2.67322139 C3.69341329,2.67322139 2.03793023,4.00974995 2.03793023,5.65151476 C2.03793023,5.86416467 2.06670945,6.06882527 2.11447391,6.26975255 C0.798917109,7.04232579 3.01353064e-05,8.28626802 3.01353064e-05,9.61114862 C3.01353064e-05,10.6812675 0.492667057,11.7203998 1.39228129,12.5433728 C2.3154764,13.3853111 3.53550429,13.8837094 4.83667148,13.9416505 L8.98939204,13.9416505 C9.3482282,13.9416505 9.63534234,13.7100353 9.63534234,13.420255 C9.63534234,13.1305494 9.3482282,12.8987102 8.98939204,12.8987102 L4.89415458,12.8987102 C2.93754447,12.8021666 1.29185538,11.2993559 1.29185538,9.6074153 C1.29185538,8.51414987 2.01902033,7.49420685 3.19098239,6.94189949 C3.46385759,6.81436927 3.57852244,6.54795956 3.47319954,6.30835508 C3.37759528,6.09973716 3.32975548,5.87962061 3.32975548,5.64389879 C3.32975548,4.57773726 4.40618863,3.70854569 5.72671775,3.70854569 C6.00885956,3.70854569 6.28640573,3.74722289 6.54474065,3.82435328 C6.86040798,3.91716362 7.20960084,3.8012067 7.35327092,3.5578689 C8.24798817,2.02429571 10.18049,1.03533924 12.2807702,1.03533924 C15.1033937,1.03533924 17.4333802,2.74281048 17.7012831,5.00654639 C17.729987,5.24211889 17.9500501,5.43139821 18.2371642,5.47015007 C20.3659976,5.76358902 21.9736408,7.35129536 21.9736408,9.16315022 C21.9736408,11.0830474 20.1029917,12.7517667 17.7971134,12.8947529 L14.2711319,12.8947529 C13.912371,12.8947529 13.6251816,13.1265921 13.6251816,13.4162977 C13.6251816,13.7060033 13.912371,13.9379172 14.2711319,13.9379172 L17.8687601,13.9379172 C19.3277609,13.8527975 20.6913836,13.3119887 21.7056626,12.4080773 C22.7150447,11.5117818 23.2651647,10.3606499 23.2651647,9.16315022 C23.2605691,6.99588329 21.4281165,5.06837017 18.921085,4.53532674" id="Fill-7" fill="#2C2C2C" mask="url(#mask-2)"></path>
                    </g>
                </g>
            </g>
        </g>
    </g>
</svg>

<svg width="24" height="18" xmlns="http://www.w3.org/2000/svg" xmlns:xlink="http://www.w3.org/1999/xlink">
  <defs>
    <path id="a" d="M23.265 13.942H0V0h23.265z"/>
  </defs>
  <g fill="none" fill-rule="evenodd">
    <path d="M11.2 8.433a.664.664 0 010-.855.493.493 0 01.756 0l2.502 2.83a.664.664 0 010 .855.493.493 0 01-.756 0l-2.501-2.83z" fill="#191919"/>
    <path d="M11.953 8.43a.664.664 0 000-.854.493.493 0 00-.755 0l-2.934 2.833a.664.664 0 000 .854.493.493 0 00.756 0l2.933-2.833z" fill="#191919"/>
    <path d="M12.065 8.607a.523.523 0 00-.51-.532c-.28 0-.51.24-.51.532v8.861c0 .293.23.532.51.532s.51-.24.51-.532V8.607z" fill="#2C2C2C"/>
    <g>
      <mask id="b" fill="#fff">
        <use xlink:href="#a"/>
      </mask>
      <path d="M18.921 4.535c-.249-1.194-.98-2.283-2.1-3.11C15.577.506 13.961 0 12.276 0c-1.301 0-2.569.301-3.655.87-.904.47-1.655 1.108-2.186 1.857a4.771 4.771 0 00-.708-.054c-2.034 0-3.69 1.337-3.69 2.979 0 .212.03.417.077.618C.8 7.042 0 8.286 0 9.61c0 1.07.493 2.11 1.392 2.932a5.465 5.465 0 003.445 1.399h4.152c.36 0 .646-.232.646-.522 0-.29-.287-.521-.646-.521H4.894c-1.956-.097-3.602-1.6-3.602-3.292 0-1.093.727-2.113 1.899-2.665.273-.128.388-.394.282-.634a1.572 1.572 0 01-.143-.664c0-1.066 1.076-1.935 2.397-1.935.282 0 .56.038.818.115.315.093.665-.023.808-.266.895-1.534 2.827-2.523 4.928-2.523 2.822 0 5.152 1.708 5.42 3.972.029.235.25.424.536.463 2.129.294 3.737 1.881 3.737 3.693 0 1.92-1.871 3.589-4.177 3.732h-3.526c-.359 0-.646.232-.646.521 0 .29.287.522.646.522h3.598c1.459-.085 2.822-.626 3.837-1.53 1.009-.896 1.56-2.047 1.56-3.245-.005-2.167-1.838-4.095-4.345-4.628" fill="#2C2C2C" mask="url(#b)"/>
    </g>
  </g>
</svg>
